X: 39168
T: Swerving For Bunnies
R: slip jig
M: 9/8
K: Gmajor
GB/c/d g2g fdB|GAB GAB AGE|GB/c/d g2g fdB|GAB GAB A2G|
GB/c/d g2g fdB|GAB GAB AGE|GB/c/d g2g fdB|GAB GAB A3:|
ee/e/e efg a2b|age deg BAG|ee/e/e efg a2b|bc'b agf edB|
ee/e/e efg a2d|dd'd c'db age|dgc gBg ABc|
dgc gBg ABc|dgc gBg ABc|dgc gBg ABA||

